public/icons/logo.svg

<svg xmlns="http://www.w3.org/2000/svg" viewBox="0 0 400 400"><title>B. L. Alterman Logo</title><desc>Personal logo for B. L. Alterman, research astrophysicist</desc><g fill="currentColor" fill-rule="evenodd"><path id="logo-starburst" d="M273.955 25.172c-5.412 1.692-3.944-.373-43.477 61.156-7.799 12.139-14.946 23.147-15.883 24.463-4.272 6.001-3.916 8.524 1.683 11.906 19.407 11.722 81.814 42.147 86.452 42.147 1.371 0 3.78-1.119 4.774-2.218 1.109-1.227 26.226-55.586 39.766-86.063 6.403-14.411 5.502-18.136-6.059-25.075-27.874-16.729-58.985-28.903-67.256-26.316m11.631 10.339c12.504 4.247 28.764 11.555 43.906 19.733 12.378 6.686 13.974 7.956 13.313 10.59-.658 2.621-25.405 56.518-39.136 85.233-2.281 4.77-1.049 4.752-11.328.169-22.163-9.881-51.391-24.506-67.805-33.928l-3.003-1.724 2.026-3.012c1.115-1.658 12.662-19.515 25.66-39.685 12.998-20.169 24.265-37.349 25.037-38.177 1.945-2.087 3.056-2.008 11.33.801"/><path id="logo-sparkle" d="M112.144 39.115c-.907.974-.94 1.117-2.004 8.541-5.632 39.326-11.019 45.014-49.007 51.742-8.677 1.537-9.691 1.966-9.882 4.176-.176 2.028.76 2.609 5.645 3.511 31.584 5.831 38.514 8.719 44.243 18.442 3.739 6.344 7.496 21.356 9.451 37.754.534 4.478 1.541 6.25 3.551 6.25 2.476 0 3.096-1.411 4.034-9.179.338-2.793 1.302-8.506 2.142-12.696 5.764-28.728 11.358-33.42 47.261-39.642 9.102-1.577 9.961-1.949 9.961-4.303 0-2.257-.961-2.715-8.594-4.1-40.082-7.27-44.759-12.036-50.547-51.516-.989-6.743-1.3-8.101-2.038-8.886-1.129-1.202-3.142-1.247-4.216-.094"/><path id="logo-body" d="M205.771 125.978c-.585.33-1.8 1.695-2.7 3.033-10.661 15.869-28.131 33.174-44.682 44.259-7.486 5.014-6.953 3.728-7.278 17.55-.415 17.646-1.914 31.012-6.615 58.985-1.899 11.3-8.283 43.432-10.516 52.929-2.544 10.82-2.717 11.756-2.706 14.649.023 6.132 4.185 10.734 10.333 11.427 1.67.189 1.856.326 2.711 2.013 6.02 11.881 18.183 15.407 52.362 15.183 19.41-.127 24.315.415 31.037 3.432 13.76 6.175.097 20.208-27.375 28.115-9.613 2.767-19.232 4.26-31.592 4.903-9.236.481-9.766.648-9.766 3.091 0 6.052 34.991 3.918 54.518-3.326 37.522-13.919 40.789-39.499 5.846-45.769-2.811-.504-7.933-.693-25.207-.927-11.924-.161-22.559-.469-23.633-.684-2.681-.537-6.932-1.653-7.498-1.97-.886-.495 34.098-29.462 63.357-52.461 18.125-14.246 38.912-29.575 51.228-37.775 6.391-4.256 6.629-4.575 7.191-9.675 1.386-12.566 8.757-38.765 15.07-53.562 2.768-6.488 2.268-7.824-3.961-10.584-30.063-13.317-52.783-24.429-73.434-35.915-4.082-2.271-8.565-4.827-9.961-5.681-2.876-1.758-5.087-2.166-6.729-1.24m7.51 11.537c15.463 9.198 50.569 26.7 72.266 36.029 3.545 1.525 6.485 2.794 6.534 2.822.05.027-.527 1.621-1.281 3.541-5.551 14.135-11.912 36.984-13.795 49.548l-.638 4.261-6.054 4.089c-24.596 16.611-65.789 48.952-106.93 83.953-10.409 8.855-9.992 8.677-11.682 4.985-1.274-2.783-1.282-2.759 3.214-9.962 2.073-3.321 6.763-11.136 10.423-17.367 27.832-47.387 43.791-73.641 44.623-73.412 21.948 6.053 34.264-25.315 13.933-35.486-18.056-9.033-36.061 13.701-23.063 29.119l1.569 1.861-7.131 12.006c-3.923 6.603-9.316 15.6-11.986 19.993s-8.955 14.974-13.965 23.514c-8.114 13.828-11.513 19.485-23.324 38.811-3.299 5.4-3.758 5.75-5.491 4.191-1.678-1.512-1.682-1.468 1.299-14.738 11.154-49.644 17.956-95.382 17.963-120.786l.001-2.036 2.441-1.651c15.734-10.641 31.637-25.832 43.767-41.806l3.167-4.17.996.707c.548.388 1.963 1.282 3.144 1.984"/></g></svg>

<svg id="svg" xmlns="http://www.w3.org/2000/svg" xmlns:xlink="http://www.w3.org/1999/xlink" width="400" height="400" viewBox="0, 0, 400,400"><g id="svgg"><path id="path0" d="M273.955 25.172 C 268.543 26.864,270.011 24.799,230.478 86.328 C 222.679 98.467,215.532 109.475,214.595 110.791 C 210.323 116.792,210.679 119.315,216.278 122.697 C 235.685 134.419,298.092 164.844,302.730 164.844 C 304.101 164.844,306.510 163.725,307.504 162.626 C 308.613 161.399,333.730 107.040,347.270 76.563 C 353.673 62.152,352.772 58.427,341.211 51.488 C 313.337 34.759,282.226 22.585,273.955 25.172 M285.586 35.511 C 298.090 39.758,314.350 47.066,329.492 55.244 C 341.870 61.930,343.466 63.200,342.805 65.834 C 342.147 68.455,317.400 122.352,303.669 151.067 C 301.388 155.837,302.620 155.819,292.341 151.236 C 270.178 141.355,240.950 126.730,224.536 117.308 L 221.533 115.584 223.559 112.572 C 224.674 110.914,236.221 93.057,249.219 72.887 C 262.217 52.718,273.484 35.538,274.256 34.710 C 276.201 32.623,277.312 32.702,285.586 35.511 M112.144 39.115 C 111.237 40.089,111.204 40.232,110.140 47.656 C 104.508 86.982,99.121 92.670,61.133 99.398 C 52.456 100.935,51.442 101.364,51.251 103.574 C 51.075 105.602,52.011 106.183,56.896 107.085 C 88.480 112.916,95.410 115.804,101.139 125.527 C 104.878 131.871,108.635 146.883,110.590 163.281 C 111.124 167.759,112.131 169.531,114.141 169.531 C 116.617 169.531,117.237 168.120,118.175 160.352 C 118.513 157.559,119.477 151.846,120.317 147.656 C 126.081 118.928,131.675 114.236,167.578 108.014 C 176.680 106.437,177.539 106.065,177.539 103.711 C 177.539 101.454,176.578 100.996,168.945 99.611 C 128.863 92.341,124.186 87.575,118.398 48.095 C 117.409 41.352,117.098 39.994,116.360 39.209 C 115.231 38.007,113.218 37.962,112.144 39.115 M205.771 125.978 C 205.186 126.308,203.971 127.673,203.071 129.011 C 192.410 144.880,174.940 162.185,158.389 173.270 C 150.903 178.284,151.436 176.998,151.111 190.820 C 150.696 208.466,149.197 221.832,144.496 249.805 C 142.597 261.105,136.213 293.237,133.980 302.734 C 131.436 313.554,131.263 314.490,131.274 317.383 C 131.297 323.515,135.459 328.117,141.607 328.810 C 143.277 328.999,143.463 329.136,144.318 330.823 C 150.338 342.704,162.501 346.230,196.680 346.006 C 216.090 345.879,220.995 346.421,227.717 349.438 C 241.477 355.613,227.814 369.646,200.342 377.553 C 190.729 380.320,181.110 381.813,168.750 382.456 C 159.514 382.937,158.984 383.104,158.984 385.547 C 158.984 391.599,193.975 389.465,213.502 382.221 C 251.024 368.302,254.291 342.722,219.348 336.452 C 216.537 335.948,211.415 335.759,194.141 335.525 C 182.217 335.364,171.582 335.056,170.508 334.841 C 167.827 334.304,163.576 333.188,163.010 332.871 C 162.124 332.376,197.108 303.409,226.367 280.410 C 244.492 266.164,265.279 250.835,277.595 242.635 C 283.986 238.379,284.224 238.060,284.786 232.960 C 286.172 220.394,293.543 194.195,299.856 179.398 C 302.624 172.910,302.124 171.574,295.895 168.814 C 265.832 155.497,243.112 144.385,222.461 132.899 C 218.379 130.628,213.896 128.072,212.500 127.218 C 209.624 125.460,207.413 125.052,205.771 125.978 M213.281 137.515 C 228.744 146.713,263.850 164.215,285.547 173.544 C 289.092 175.069,292.032 176.338,292.081 176.366 C 292.131 176.393,291.554 177.987,290.800 179.907 C 285.249 194.042,278.888 216.891,277.005 229.455 L 276.367 233.716 270.313 237.805 C 245.717 254.416,204.524 286.757,163.383 321.758 C 152.974 330.613,153.391 330.435,151.701 326.743 C 150.427 323.960,150.419 323.984,154.915 316.781 C 156.988 313.460,161.678 305.645,165.338 299.414 C 193.170 252.027,209.129 225.773,209.961 226.002 C 231.909 232.055,244.225 200.687,223.894 190.516 C 205.838 181.483,187.833 204.217,200.831 219.635 L 202.400 221.496 195.269 233.502 C 191.346 240.105,185.953 249.102,183.283 253.495 C 180.613 257.888,174.328 268.469,169.318 277.009 C 161.204 290.837,157.805 296.494,145.994 315.820 C 142.695 321.220,142.236 321.570,140.503 320.011 C 138.825 318.499,138.821 318.543,141.802 305.273 C 152.956 255.629,159.758 209.891,159.765 184.487 L 159.766 182.451 162.207 180.800 C 177.941 170.159,193.844 154.968,205.974 138.994 L 209.141 134.824 210.137 135.531 C 210.685 135.919,212.100 136.813,213.281 137.515 " stroke="none" fill="#000000" fill-rule="evenodd"></path></g></svg>
